X: 17571
T: Ho, Gura H-aighearach A Nochd A' Dol A Laighe Mi
R: reel
M: 4/4
K: Amixolydian
|:g2 fg a2 ee|g2 dd dddB|g2 fg a2 ee|geeB BA A/A/A:|
|:e2 ef edcA|d/d/d dB dGGB|e2 ef edcA|1 B/B/B d>B BA A/A/A:|2 B/B/B g>B BA A/A/A||

